X:1
T:Dialogo di Ninfa
T:Dialogo di Ninfa
T:Giovanni Ghizzolo
C:Giovanni Ghizzolo
%%score [ 1 2 ] { 3 | 4 }
L:1/8
Q:1/4=120
M:4/4
K:F
V:1 treble nm="Soprano Tenor"
V:2 treble-8 nm="Tenor" snm="T"
V:3 treble nm="MusicXML Part"
V:4 bass 
V:1
"^Source: Madrigale et Arie---Libro secondo---Venetia---ARaverij---1609.\nEditor: André Vierendeels (09/11/08)\nContinuo: André Vierendeels""^NINFA" z2 Bc d4- | %1
w: Per- che pian-|
 d2 ^FF G4 |[M:2/4] A4"^PASTORE" | C4 |[M:4/4] E,E,E,F, G,B,A,G, | A,8 |[M:2/4] G,4"^NINFA" | %7
w: * gi pas- to-|re?|Pian-|go ch'io son sen- z'al- ma'e sen- za|co-|re.|
 z2 A2 |[M:4/4] c3 F G3 F | F3 G/A/ F4"^PASTORE" | z2 D4 CB, | CA,B,C D3 G, | A,4 G,4 | %13
w: E|quan- do gli per-|des- * * sti?|Quan- do'al- la|boc- ca'i ba- ci mi por|ges- ti,|
 z2 G,4 F,E, | F,D,E,F, G,4- | G,2 F,/E,/F,/G,/ E,4 |[M:2/4] D,4 |"^NINFA" d4- |[M:4/4] d2 BB c4 | %19
w: quan- do'al- la|boc- ca'i ba- ci mi|_ por _ _ _ ges-|ti.|Hor|_ di mi co-|
 c2 cd _e3 e | d4 c4"^PASTORE" | F,2 F,F, F,2 G,2 | A,3 A, C2 F,2 | G,4 G,4 | B,2 B,B, B,2 G,2 | %25
w: me per tua cor- te-|si- a.|Dal pia- cer vin- to'il|co- re l'Al- ma|mi- a|ver- so la lin- gua|
 A,4 A,F,F,G, | A,B,G,F, G,2 B,2 | A,8 | G,4 z D,D,D, | D,4- D,D,E,F, | G,2 D,2 E,4 | %31
w: cor- se, e da le|la- bre le tue la- bra|scor-|se, co- ri- re-|to _ ques- t'in fe-|li- ce sal-|
 E,2 F,G, A,4- | A,2 E,F, E,4 | D,4 z G,G,G, | G,4- G,G,A,B, | C2 G,2 A,4 | A,2 B,C D4- | %37
w: ma sen- za cor|_ e sen- z'Al-|ma, co- si res-|to _ ques- tin- fe-|li- ce sal-|ma sen- za cor|
 D2 A,B, A,4 | G,8"^NINFA" | z2 G2 G4- | GBAG AABc | d2 _ee d4 | c4 z2 AA | A2 AA B4 | B4 z dcB | %45
w: _ e sen- z'Al-|ma.|Hor- su|_ non du- bi- ta- re ch'io ti|vo con- so- la-|re se co'i|bac- ci ru- ba-|i, c'o'i ba- ci|
 AG A4 z2 | D3 E/F/ G/A/B/c/ d2- | d2 BB A4 | G8"^PASTORE" | G,2 F,E, G,2 G,2 | C2 B,A, C2 C2 | %51
w: ren- de- ro|quan- * * * * * * *|* to fa- ra-|i.|Bac- cia i pres- to,|bac- cia mi pres- to,|
 D2 A,2 C4- | C2 =B,2 B,4 | A,E,E,F, G,4- | G,2 E,2 E,4 | D,8"^NINFA" | z2 cA c2 FF | %57
w: Nin- f'ai- me|_ chio mo-|ro, se non mi dai|_ pres- to-|ro.|Non te- mer che se'l|
 F2 G2 A2 =B2 | c2 cc BA G2- | G2 A2 A4 | G8 ||"^NINFA" z2 A2 B4 | G2 FG A4 | A4 z dcB | %64
w: ci- gno muor can-|tan- do tu mo- ri- rai|_ ba- cian-|do.|Mo- riam|dun- que ben mi-|o che co- si|
 _e2 c2 z cBA | d2 B2 A4 | G8 |] %67
w: vo- glio, che co- si|vo- glio'an- gh'i-|o.|
V:2
 z8 | z8 |[M:2/4] z4 | z4 |[M:4/4] z8 | z8 |[M:2/4] z4 | z4 |[M:4/4] z8 | z8 | z8 | z8 | z8 | z8 | %14
w: ||||||||||||||
 z8 | z8 |[M:2/4] z4 | z4 |[M:4/4] z8 | z8 | z8 | z8 | z8 | z8 | z8 | z8 | z8 | z8 | z8 | z8 | z8 | %31
w: |||||||||||||||||
 z8 | z8 | z8 | z8 | z8 | z8 | z8 | z8 | z8 | z8 | z8 | z8 | z8 | z8 | z8 | z8 | z8 | z8 | z8 | %50
w: |||||||||||||||||||
 z8 | z8 | z8 | z8 | z8 | z8 | z8 | z8 | z8 | z8 | z8 ||"^PASTORE" z2 ^F2 G4 | E2 DE F4 | %63
w: |||||||||||riam dun-|que ben mi- o|
 FAGF B2 G2 | z GFE A2 ^F2 | G/>A/^F G4 F2 | G8 |] %67
w: che co- si vo- glio, che|co- si vo- glio'an ch'i-|o. * * * *||
V:3
 [DGB]8 | [^FA]4 [CB]4 |[M:2/4] [D^FA]4 | [EAc]4 |[M:4/4] [EGc]4 [DGB]4 | [FA]8 |[M:2/4] [DB]4 | %7
 [Ac]4- |[M:4/4] [Ac]4 [Gc]4 | [FAc]8 | [DGB]8 | [Ec]4 [GB]4 | [^FAd]4 [DG]4 | [Ec]4 [DG]4 | %14
 [CA]2 [CG]2 [DG]2 [DF]2 | [EA]4 [E^c]4 |[M:2/4] [^FAd]4 | [DG-B-]4 |[M:4/4] [GB]4 [FAc-]4 | %19
 [FAc]4 [_EG]4 | [DB]4 [EGc]4 | [F-Ac-]8 | [FAc]8 | [EGc]8 | [DGB]8 | [F-Ad-]8 | %26
 [FAd]4 [Ec]2 [DGB]2 | [D^FA]8 | [D-GB-]8 | [D-GB-]8 | [DGB]4 [F-Ac-]4 | [FAc]4 [DFB]4 | [Ec]8 | %33
 [^FAd]4 [Gc]4 | [E-Gc-]8 | [EGB]4 [F-Ac-]4 | [FAc]4 [DGB]4 | [^FAd]8 | [DG=B]8 | [EGc]8 | %40
 [DGB]4 [FA]4 | [DB]4 [DGB]4 | [EGc]4 [F-Ac-]4 | [FAc]4 [D-FB-]4 | [DF-B-]8 | [FB]4 [FA]4 | [DG]8 | %47
 [^FAd]8 | [DG=B]8 | [EGc]8 | [FAc]8 | [FA]4 [D^Fc]4 | [E^GB]8 | [EA^c]4 [EG]4 | [EA]4 [EA^c]4 | %55
 [^FAd]8 | [F-Ac-]8 | [FAc]8 | [Gc]8- | [Gc]2 [EAc]2 [GB]2 [^FA]2 | [D=B]8 || [^FA]4 [DGB]4 | %62
 [EGc]4 [F-Ac-]4"^Note: original keys: Ut 1st, Fa 4rth" | [FAc]4 [GB]4 | [Gc]4 [Ac]2 [^Fd]2 | %65
 [GBd]4 [DAd]4 | [DG=B]8 |] %67
V:4
 G,8 | D,4 _E,4 |[M:2/4]"^#" D,4 | A,,4 |[M:4/4] C,4 G,,4 | D,4 D,,4 |[M:2/4] G,,4 | F,,4 | %8
[M:4/4] F,4 C,4 | F,,8 | G,,8 | A,,4 B,,2 G,,2 | D,4 =B,,2 C,2- | C,2 B,,A,, B,,3 G,, | %14
 A,,B,, C,4 B,,2 | A,,8 |[M:2/4] D,4 | G,4 |[M:4/4] _E,2 D,2 F,4- | F,4 C,4 | G,4 C,4 | F,8 | %22
 F,,8 | C,8 | G,,8 | D,8 | D,4 C,2 G,,2 | D,4 D,,4 | G,,8 | G,,8 | G,,4 C,4- | C,4 F,,2 G,,2 | %32
 A,,8 |"^#" D,4 C,4 | C,,8 | C,4 F,4 | F,,4 B,,2 A,,G,, | D,4 D,,4 | G,,8 | C,8 | G,,4 D,4 | %41
 G,2 C,2 G,4 | C,4 F,4- | F,4 B,,4 | B,,4 z B,A,G, | F,_E,D,C, D,4 | =B,,6 C,2 | D,8 | G,,8 | C,8 | %50
 F,,4 F,4 | D,4"^7" D,4 |"^#" E,8 | A,,4"^7" A,,4 | A,,8 | D,8 | F,4 F,,4 | %57
 F,2 E,2 D,2"^-natural" D,2 | C,4 z F,_E,D, | C,2"^6" C,2 D,4 | G,,8 || D,4 G,,4 | C,4 F,,4 | %63
 F,,4 G,,4 | C,4 A,,4 | G,,4 D,4 | G,,8 |] %67

